icons/papirus/48x48/apps/playonlinux.svg

<?xml version="1.0" encoding="UTF-8" standalone="no"?>
<svg
   xmlns:dc="http://purl.org/dc/elements/1.1/"
   xmlns:cc="http://creativecommons.org/ns#"
   xmlns:rdf="http://www.w3.org/1999/02/22-rdf-syntax-ns#"
   xmlns:svg="http://www.w3.org/2000/svg"
   xmlns="http://www.w3.org/2000/svg"
   xmlns:sodipodi="http://sodipodi.sourceforge.net/DTD/sodipodi-0.dtd"
   xmlns:inkscape="http://www.inkscape.org/namespaces/inkscape"
   viewBox="0 0 48 48"
   id="svg2"
   version="1.1"
   inkscape:version="0.91 r"
   sodipodi:docname="playonlinux.svg">
  <metadata
     id="metadata71">
    <rdf:RDF>
      <cc:Work
         rdf:about="">
        <dc:format>image/svg+xml</dc:format>
        <dc:type
           rdf:resource="http://purl.org/dc/dcmitype/StillImage" />
        <dc:title></dc:title>
      </cc:Work>
    </rdf:RDF>
  </metadata>
  <sodipodi:namedview
     pagecolor="#b6b6b6"
     bordercolor="#666666"
     borderopacity="1"
     objecttolerance="10"
     gridtolerance="10"
     guidetolerance="10"
     inkscape:pageopacity="0"
     inkscape:pageshadow="2"
     inkscape:window-width="1600"
     inkscape:window-height="843"
     id="namedview69"
     showgrid="false"
     showguides="false"
     inkscape:zoom="8.66"
     inkscape:cx="20.659573"
     inkscape:cy="24.592736"
     inkscape:window-x="-4"
     inkscape:window-y="31"
     inkscape:window-maximized="1"
     inkscape:current-layer="svg2">
    <inkscape:grid
       type="xygrid"
       id="grid4224" />
  </sodipodi:namedview>
  <defs
     id="defs4" />
  <path
     sodipodi:nodetypes="ccccc"
     d="m 24.22783,24.072776 c 4.473894,8.14267 2.41284,23.631718 -5.397562,19.118938 -2.28376,-1.321 -3.174869,-2.709858 -3.325814,-4.007259 C 14.305508,39.70374 12.658526,39.628217 10.36924,38.31018 1.6950476,33.302132 14.938622,24.269316 24.222311,24.075725"
     style="fill:#37a0f2;fill-opacity:1;fill-rule:nonzero;stroke:none"
     id="path4254"
     inkscape:connector-curvature="0" />
  <path
     inkscape:connector-curvature="0"
     id="path59"
     style="fill:#e74c3c;fill-opacity:1;fill-rule:nonzero;stroke:none"
     d="m 24.22783,24.072776 c 0.314295,-0.0067 0.632133,-0.02401 0.952612,-0.05148 9.150986,-0.784483 20.4551,-9.827321 12.906093,-14.1824161 C 35.800635,8.521588 34.152293,8.4442935 32.95324,8.9622722 32.80348,7.6643115 31.914584,6.2757455 29.628488,4.9521841 21.338905,0.16619112 19.874618,14.553496 23.666102,22.94041 c 0.175912,0.389126 0.100384,0.809127 0.298767,1.169904"
     sodipodi:nodetypes="cscccsc" />
  <path
     sodipodi:nodetypes="ccccc"
     d="m 23.927224,24.153323 c 0.196829,9.288707 9.726278,21.672088 14.233895,13.858706 1.317294,-2.2859 1.394588,-3.934242 0.876609,-5.133296 1.297961,-0.149759 2.686527,-1.038655 4.010088,-3.324752 5.008048,-8.674192 -10.977632,-9.875054 -19.114338,-5.400863"
     style="fill:#fecd38;fill-opacity:1;fill-rule:nonzero;stroke:none"
     id="path4262"
     inkscape:connector-curvature="0" />
  <path
     inkscape:connector-curvature="0"
     id="path4264"
     style="fill:#a4c639;fill-opacity:1;fill-rule:nonzero;stroke:none"
     d="M 23.927224,24.153323 C 15.784554,28.627218 0.2955065,26.566164 4.808286,18.755762 6.1292865,16.472002 7.518145,15.580892 8.8155455,15.429948 8.2962608,14.231001 8.3717838,12.58402 9.6898208,10.294734 14.697868,1.6205412 23.730685,14.864115 23.924275,24.147804"
     sodipodi:nodetypes="ccccc" />
  <path
     style="fill:#000000;fill-opacity:1;fill-rule:nonzero;stroke:none;opacity:0.3"
     d="M 21.710938 12.646484 C 21.695998 13.280708 21.726661 13.932982 21.763672 14.587891 C 21.784222 14.632845 21.807807 14.675584 21.828125 14.720703 C 21.757778 14.023028 21.72385 13.330444 21.710938 12.646484 z M 40.505859 12.960938 C 40.121385 15.672394 36.934498 18.658882 32.945312 20.679688 C 33.575564 20.632494 34.197592 20.616621 34.8125 20.617188 C 38.352998 18.401387 40.843277 15.485009 40.505859 12.960938 z M 8.5507812 13.453125 C 8.5132481 13.819615 8.5135136 14.162656 8.5566406 14.478516 C 8.6433489 14.461828 8.7304589 14.439687 8.8164062 14.429688 C 8.687811 14.132786 8.5967031 13.807884 8.5507812 13.453125 z M 4.0527344 20.841797 C 3.560755 24.424184 8.0308067 26.333665 13.296875 26.460938 C 13.902424 26.101037 14.52952 25.755268 15.185547 25.439453 C 9.6823998 25.741456 4.5015291 24.1633 4.0527344 20.841797 z M 43.945312 26.03125 C 43.855376 26.791504 43.583693 27.624907 43.046875 28.554688 C 41.723271 30.840818 40.335112 31.729145 39.037109 31.878906 C 39.162172 32.168406 39.250317 32.485591 39.296875 32.830078 C 40.519723 32.59647 41.810615 31.689957 43.046875 29.554688 C 43.831343 28.195972 44.080162 27.030129 43.945312 26.03125 z M 26.533203 32.277344 C 26.545406 32.618245 26.545178 32.956427 26.542969 33.292969 C 29.741693 39.310462 35.102146 43.312298 38.160156 38.011719 C 39.15248 36.28977 39.442002 34.930299 39.302734 33.851562 C 39.211635 34.74188 38.869343 35.781088 38.160156 37.011719 C 35.099373 42.317105 29.730898 38.303948 26.533203 32.277344 z M 26.537109 33.720703 C 26.382577 39.925404 23.755596 45.037277 18.830078 42.191406 C 16.546244 40.870386 15.654856 39.481014 15.503906 38.183594 C 14.304921 38.702887 12.658501 38.628604 10.369141 37.310547 C 8.590218 36.283503 7.7501589 35.086388 7.5917969 33.832031 C 7.3461018 35.446089 8.1213116 37.012785 10.369141 38.310547 C 12.658501 39.628604 14.304921 39.702887 15.503906 39.183594 C 15.654856 40.481014 16.546244 41.870386 18.830078 43.191406 C 24.017763 46.188752 26.652621 40.35781 26.537109 33.720703 z "
     id="path4282" />
  <path
     style="fill:#ffffff;fill-opacity:1;fill-rule:nonzero;stroke:none;opacity:0.2"
     d="M 26.722656 4.0019531 C 23.187304 3.8931713 21.61267 8.4413103 21.710938 13.646484 C 21.823376 8.8731759 23.415843 4.9002034 26.722656 5.0019531 C 27.576929 5.0282389 28.544597 5.3271099 29.628906 5.953125 C 31.915076 7.2767062 32.803361 8.6649106 32.953125 9.9628906 C 34.152217 9.4449042 35.799963 9.5225298 38.085938 10.839844 C 39.616907 11.723059 40.35079 12.800929 40.505859 13.960938 C 40.723928 12.423036 40.049326 10.972521 38.085938 9.8398438 C 35.799964 8.5225303 34.152217 8.4449042 32.953125 8.9628906 C 32.803361 7.6649106 31.915076 6.2767062 29.628906 4.953125 C 28.544597 4.3271099 27.576929 4.0282389 26.722656 4.0019531 z M 13.474609 7.4785156 C 12.109011 7.5259038 10.80109 8.3695437 9.6894531 10.294922 C 8.6977712 12.017335 8.4112587 13.375275 8.5507812 14.453125 C 8.6418289 13.564096 8.9814643 12.524599 9.6894531 11.294922 C 13.246691 5.1337118 18.819558 10.039623 21.828125 16.720703 C 21.789705 16.339667 21.785044 15.966063 21.763672 15.587891 C 19.692161 11.056377 16.449415 7.3752857 13.474609 7.4785156 z M 8.5566406 15.478516 C 7.3344198 15.713745 6.0421262 16.623353 4.8085938 18.755859 C 4.1388751 19.914942 3.9307543 20.939029 4.0527344 21.841797 C 4.1411297 21.198139 4.3747445 20.506722 4.8085938 19.755859 C 6.1296369 17.472066 7.5189639 16.580634 8.8164062 16.429688 C 8.6910279 16.140213 8.6036649 15.822918 8.5566406 15.478516 z M 34.8125 21.617188 C 34.214351 21.991536 33.593881 22.351141 32.945312 22.679688 C 38.386985 22.27221 43.487304 23.638624 43.945312 27.03125 C 44.381485 23.344177 40.000259 21.621964 34.8125 21.617188 z M 15.185547 27.439453 C 14.54844 27.474416 13.919008 27.475973 13.296875 27.460938 C 9.7756156 29.553755 7.2730703 32.307456 7.5917969 34.832031 C 7.999186 32.155748 11.214347 29.351208 15.185547 27.439453 z M 39.296875 33.830078 C 39.210479 33.846583 39.122764 33.869024 39.037109 33.878906 C 39.164909 34.174741 39.257121 34.498247 39.302734 34.851562 C 39.339999 34.487374 39.33934 34.144285 39.296875 33.830078 z M 26.533203 34.277344 C 26.53853 34.426159 26.534532 34.572604 26.537109 34.720703 C 26.540647 34.57867 26.542029 34.436066 26.542969 34.292969 C 26.540068 34.287512 26.5361 34.282804 26.533203 34.277344 z "
     id="path4293" />
</svg>

<?xml version="1.0" encoding="UTF-8" standalone="no"?>
<svg id="svg2" xmlns:rdf="http://www.w3.org/1999/02/22-rdf-syntax-ns#" xmlns="http://www.w3.org/2000/svg" version="1.1" xmlns:cc="http://creativecommons.org/ns#" xmlns:dc="http://purl.org/dc/elements/1.1/" viewBox="0 0 48 48">
 <metadata id="metadata71">
  <rdf:RDF>
   <cc:Work rdf:about="">
    <dc:format>image/svg+xml</dc:format>
    <dc:type rdf:resource="http://purl.org/dc/dcmitype/StillImage"/>
    <dc:title/>
   </cc:Work>
  </rdf:RDF>
 </metadata>
 <path id="path4254" d="m24.228 24.073c4.4739 8.1427 2.4128 23.632-5.3976 19.119-2.2838-1.321-3.1749-2.7099-3.3258-4.0073-1.199 0.519-2.846 0.443-5.136-0.875-8.674-5.008 4.57-14.041 13.853-14.234" fill="#37a0f2"/>
 <path id="path59" d="m24.228 24.073c0.3143-0.0067 0.63213-0.02401 0.95261-0.05148 9.151-0.78448 20.455-9.8273 12.906-14.182-2.286-1.3184-3.935-1.3957-5.134-0.8777-0.15-1.298-1.038-2.6866-3.325-4.0101-8.289-4.786-9.753 9.6008-5.962 17.988 0.17591 0.38913 0.10038 0.80913 0.29877 1.1699" fill="#e74c3c"/>
 <path id="path4262" d="m23.927 24.153c0.19683 9.2887 9.7263 21.672 14.234 13.859 1.3173-2.2859 1.3946-3.9342 0.87661-5.1333 1.298-0.14976 2.6865-1.0387 4.0101-3.3248 5.008-8.6742-10.978-9.8751-19.114-5.4009" fill="#fecd38"/>
 <path id="path4264" d="m23.927 24.153c-8.142 4.474-23.631 2.413-19.119-5.397 1.3213-2.284 2.7101-3.175 4.0075-3.326-0.5192-1.199-0.4437-2.846 0.8743-5.135 5.0082-8.6745 14.041 4.569 14.234 13.853" fill="#a4c639"/>
 <path id="path4282" opacity=".3" d="m21.711 12.646c-0.015 0.635 0.016 1.287 0.053 1.942 0.02 0.045 0.044 0.088 0.064 0.133-0.07-0.698-0.104-1.391-0.117-2.075zm18.795 0.315c-0.385 2.711-3.572 5.698-7.561 7.719 0.631-0.048 1.253-0.063 1.867-0.063 3.541-2.216 6.031-5.132 5.694-7.656zm-31.955 0.492c-0.0376 0.367-0.0373 0.71 0.0058 1.026 0.0867-0.017 0.1739-0.039 0.2598-0.049-0.1286-0.297-0.2197-0.622-0.2656-0.977zm-4.4981 7.389c-0.4919 3.582 3.9781 5.492 9.2443 5.619 0.605-0.36 1.233-0.706 1.889-1.022-5.5036 0.302-10.684-1.276-11.133-4.597zm39.892 5.189c-0.09 0.761-0.361 1.594-0.898 2.524-1.324 2.286-2.712 3.174-4.01 3.324 0.125 0.289 0.213 0.607 0.26 0.951 1.223-0.234 2.514-1.14 3.75-3.275 0.784-1.359 1.033-2.525 0.898-3.524zm-17.412 6.246c0.012 0.341 0.012 0.679 0.01 1.016 3.199 6.017 8.559 10.019 11.617 4.719 0.992-1.722 1.282-3.082 1.143-4.16-0.091 0.89-0.434 1.929-1.143 3.16-3.061 5.305-8.429 1.292-11.627-4.735zm0.004 1.444c-0.154 6.204-2.781 11.316-7.707 8.47-2.284-1.321-3.175-2.71-3.326-4.007-1.199 0.519-2.845 0.445-5.135-0.873-1.7788-1.027-2.6188-2.225-2.7772-3.479-0.2457 1.614 0.5295 3.181 2.7772 4.479 2.29 1.318 3.936 1.392 5.135 0.873 0.151 1.297 1.042 2.686 3.326 4.007 5.188 2.998 7.823-2.833 7.707-9.47z"/>
 <path id="path4293" opacity=".2" d="m26.723 4.002c-3.536-0.1088-5.11 4.4393-5.012 9.644 0.112-4.7728 1.705-8.7458 5.012-8.644 0.854 0.0262 1.822 0.3251 2.906 0.9511 2.286 1.3236 3.174 2.7118 3.324 4.0098 1.199-0.518 2.847-0.4404 5.133 0.8771 1.531 0.883 2.265 1.961 2.42 3.121 0.218-1.538-0.457-2.988-2.42-4.1212-2.286-1.3173-3.934-1.3949-5.133-0.8769-0.15-1.298-1.038-2.6862-3.324-4.0098-1.084-0.626-2.052-0.9249-2.906-0.9511zm-13.248 3.4765c-1.366 0.0474-2.674 0.891-3.7855 2.8165-0.9917 1.722-1.2782 3.08-1.1387 4.158 0.091-0.889 0.4307-1.928 1.1387-3.158 3.5575-6.1613 9.1305-1.255 12.138 5.426-0.038-0.381-0.043-0.755-0.064-1.133-2.072-4.532-5.315-8.2127-8.289-8.1095zm-4.9184 8.0005c-1.2222 0.235-2.5145 1.144-3.748 3.277-0.6697 1.159-0.8778 2.183-0.7559 3.086 0.0884-0.644 0.322-1.335 0.7559-2.086 1.321-2.284 2.7104-3.175 4.0078-3.326-0.1254-0.29-0.2127-0.607-0.2598-0.951zm26.255 6.138c-0.598 0.375-1.218 0.734-1.867 1.063 5.442-0.408 10.542 0.959 11 4.351 0.436-3.687-3.945-5.409-9.133-5.414zm-19.626 5.822c-0.638 0.035-1.267 0.037-1.889 0.022-3.5214 2.093-6.0239 4.846-5.7052 7.371 0.4074-2.676 3.6222-5.481 7.5942-7.393zm24.111 6.391c-0.087 0.017-0.174 0.039-0.26 0.049 0.128 0.296 0.22 0.619 0.266 0.973 0.037-0.365 0.036-0.708-0.006-1.022zm-12.764 0.447c0.006 0.149 0.002 0.296 0.004 0.444 0.004-0.142 0.005-0.285 0.006-0.428-0.003-0.005-0.007-0.01-0.01-0.016z" fill="#fff"/>
</svg>
